icons/layout-grid-line.svg

<svg viewBox="0 0 24 24" fill="currentColor" xmlns="http://www.w3.org/2000/svg">
    <path d="M21 3C21.5523 3 22 3.44772 22 4V20C22 20.5523 21.5523 21 21 21H3C2.44772 21 2 20.5523 2 20V4C2 3.44772 2.44772 3 3 3H21ZM11 13H4V19H11V13ZM20 13H13V19H20V13ZM11 5H4V11H11V5ZM20 5H13V11H20V5Z"/>
</svg>

<svg xmlns="http://www.w3.org/2000/svg" viewBox="0 0 24 24">
    <g>
        <path fill="none" d="M0 0h24v24H0z"/>
        <path fill-rule="nonzero" d="M21 3a1 1 0 0 1 1 1v16a1 1 0 0 1-1 1H3a1 1 0 0 1-1-1V4a1 1 0 0 1 1-1h18zM11 13H4v6h7v-6zm9 0h-7v6h7v-6zm-9-8H4v6h7V5zm9 0h-7v6h7V5z"/>
    </g>
</svg>
